src/main/resources/pixelj/resources/svg/light/pxf_file_save_as.svg

<?xml version="1.0" encoding="UTF-8" standalone="no"?>
<!DOCTYPE svg PUBLIC "-//W3C//DTD SVG 1.1//EN" "http://www.w3.org/Graphics/SVG/1.1/DTD/svg11.dtd">
<svg width="100%" height="100%" viewBox="0 0 16 16" version="1.1" xmlns="http://www.w3.org/2000/svg" xmlns:xlink="http://www.w3.org/1999/xlink" xml:space="preserve" xmlns:serif="http://www.serif.com/" style="fill-rule:evenodd;clip-rule:evenodd;stroke-linejoin:round;stroke-miterlimit:2;">
    <g id="light">
        <g id="green">
            <path d="M1,14.25c0,0.414 0.336,0.75 0.75,0.75c2.43,0 10.07,-0 12.5,0c0.414,-0 0.75,-0.336 0.75,-0.75c0,-2.626 0,-11.25 0,-11.25l-2,-2l-1,0l0,6c0,0 -5.263,0 -7.252,0c-0.413,0 -0.748,-0.335 -0.748,-0.748c0,-1.609 0,-5.252 0,-5.252l-2.25,-0c-0.199,-0 -0.39,0.079 -0.53,0.22c-0.141,0.14 -0.22,0.331 -0.22,0.53c0,2.43 0,10.07 0,12.5Zm3,-4.25c0.552,0 1,0.448 1,1c0,0.552 -0.448,1 -1,1c-0.552,0 -1,-0.448 -1,-1c0,-0.552 0.448,-1 1,-1Zm4,0c0.552,0 1,0.448 1,1c0,0.552 -0.448,1 -1,1c-0.552,0 -1,-0.448 -1,-1c0,-0.552 0.448,-1 1,-1Zm4,0c0.552,0 1,0.448 1,1c0,0.552 -0.448,1 -1,1c-0.552,0 -1,-0.448 -1,-1c0,-0.552 0.448,-1 1,-1Z" style="fill:rgb(41,121,255);"/>
        </g>
        <g id="red">
        </g>
        <g id="gray">
        </g>
        <g id="yellow">
        </g>
        <g id="icon">
            <path d="M11,1l-6,0l0,5l6,0l0,-5Zm-1,1l-2,0l-0,3c-0,0 2,0 2,0l-0,-3Z" style="fill:rgb(72,72,74);"/>
        </g>
    </g>
    <g id="menu">
    </g>
</svg>

<?xml version="1.0" encoding="UTF-8" standalone="no"?>
<!DOCTYPE svg PUBLIC "-//W3C//DTD SVG 1.1//EN" "http://www.w3.org/Graphics/SVG/1.1/DTD/svg11.dtd">
<svg width="100%" height="100%" viewBox="0 0 16 16" version="1.1" xmlns="http://www.w3.org/2000/svg" xmlns:xlink="http://www.w3.org/1999/xlink" xml:space="preserve" xmlns:serif="http://www.serif.com/" style="fill-rule:evenodd;clip-rule:evenodd;stroke-linejoin:round;stroke-miterlimit:2;">
    <g id="green">
        <path d="M1,15L15,15L15,3L13,1L12,1L12,7C12,7 4,7 4,7L4,1L1,1L1,15ZM4,10C4.552,10 5,10.448 5,11C5,11.552 4.552,12 4,12C3.448,12 3,11.552 3,11C3,10.448 3.448,10 4,10ZM8,10C8.552,10 9,10.448 9,11C9,11.552 8.552,12 8,12C7.448,12 7,11.552 7,11C7,10.448 7.448,10 8,10ZM12,10C12.552,10 13,10.448 13,11C13,11.552 12.552,12 12,12C11.448,12 11,11.552 11,11C11,10.448 11.448,10 12,10Z" style="fill:rgb(41,121,255);"/>
    </g>
    <g id="red">
    </g>
    <g id="gray">
    </g>
    <g id="yellow">
    </g>
    <g id="icon">
        <path d="M11,1L5,1L5,6L11,6L11,1ZM10,2L8,2L8,5C8,5 10,5 10,5L10,2Z" style="fill:rgb(72,72,74);"/>
    </g>
    <g id="menu">
    </g>
</svg>
